X: 23
T: Kesh, The
Z: b
S: https://thesession.org/tunes/55#setting46161
R: jig
M: 6/8
L: 1/8
K: Dmaj
|:"D"D3/D/D DEF|"A"E2D2 FA|"G"BAA "D"dAA|"G"BAF "A"AFE|
"D"D3/D/D DEF|"A"E2D2 FA|"G"BAA "D"dAF|1 "A"EDC DFE:|2 "A"EDC D2E||
|:"Bm"F3/F/F AFA|"G"BdB AFE|"D"F3/F/F AFD|"A"EFE EFG|
"Bm"F3/F/F AFA|"G"BdB ABc|"D"dcd "A"ede|"D"fdc d3:|

